X: 18556
T: I Have Two Yellow Goats
R: polka
M: 2/4
K: Gmajor
|:DE GA|Bc/B/ AG|BA AG|BA2B|
DE GA|Bc/B/ AG|Bg G>A|1 BG G2:|2 BG Gd||
|:e>d eg|de/d/ cB|BA2G|BA2d|
ed eg|d2 cB|Bg G>A|1 BG Gd:|2 BG G2||

